[A]
T3@0V15,4
L3O4C
L3O4F6CA-6RB-A-GFG5CC
L3O4E6CB-6RA-5G5F5R5

[B]
T3@0V13,4
L3R
L3O2FO3FO2CO3CO2FO3FO2CO3CO2GO3GO2CO3CO2GO3GO2CO3C
L3O2CO3CO2GO3GO2CO3CO1GO1GO1FO2FO2CO3CO1FO2FO2CO3C

[C]
T3@0V13,4
L3R
L3O4C6RF6RR9
L3O4C6RE6RC5E5R7


